X:1
T: Hornpipe
C:Allen's page 27
R:Reel
Q: 232
K:F
M:4/4
L:1/8
|:(3cde)|f2 F2 F2 g^f|g2 G2 G2 ga|ba gf ef gf|e2 c2 cb ag|
f2 F2 F2 g^f|g2 G2 G2 ga|ba gf ef ge|f2 f2 f2:|
|:cB|Af cf af cA|Bf df bf dB|Af cf af cA|B2 G2 G2 cB|
Af cf af cA|Bf df bf df|ba gf ef ge|f2 f2 f2:|
